assets/image/linkedin.svg

<svg xmlns="http://www.w3.org/2000/svg" viewBox="0 0 448 512">
    <!--! Font Awesome Free 6.1.1 by @fontawesome - https://fontawesome.com License - https://fontawesome.com/license/free (Icons: CC BY 4.0, Fonts: SIL OFL 1.1, Code: MIT License) Copyright 2022 Fonticons, Inc. -->
    <filter id='shadow' color-interpolation-filters="sRGB">
        <feDropShadow dx="10" dy="10" stdDeviation="1" flood-color="#000000" flood-opacity="0.4" />
    </filter>
    <path filter="url(#shadow)" fill="#E0E0E0" d="M100.28 448H7.4V148.9h92.88zM53.79 108.1C24.09 108.1 0 83.5 0 53.8a53.79 53.79 0 0 1 107.58 0c0 29.7-24.1 54.3-53.79 54.3zM447.9 448h-92.68V302.4c0-34.7-.7-79.2-48.29-79.2-48.29 0-55.69 37.7-55.69 76.7V448h-92.78V148.9h89.08v40.8h1.3c12.4-23.5 42.69-48.3 87.88-48.3 94 0 111.28 61.9 111.28 142.3V448z" />
</svg>

<svg viewBox="0 0 448 512" xmlns="http://www.w3.org/2000/svg"><path d="m100.3 448h-92.9v-299.1h92.9zm-46.5-339.9c-29.7 0-53.8-24.6-53.8-54.3a53.8 53.8 0 0 1 107.6 0c0 29.7-24.1 54.3-53.8 54.3zm394.1 339.9h-92.7v-145.6c0-34.7-.7-79.2-48.3-79.2-48.3 0-55.7 37.7-55.7 76.7v148.1h-92.8v-299.1h89.1v40.8h1.3c12.4-23.5 42.7-48.3 87.9-48.3 94 0 111.3 61.9 111.3 142.3v164.3z" fill="#e0e0e0"/></svg>
